icons/transcript-16.svg

<?xml version="1.0" encoding="UTF-8"?><svg id="icons" xmlns="http://www.w3.org/2000/svg" viewBox="0 0 16 16"><defs><style>.cls-1{fill:none;}.cls-1,.cls-2{stroke-width:0px;}.cls-2{fill:#000;}</style></defs><rect class="cls-1" width="16" height="16"/><rect class="cls-1" width="16" height="16"/><path class="cls-2" d="M13,7H4v-1h9v1ZM11,12h-7v1h7v-1ZM15,0v16H2V0h13ZM14,1H3v14h11V1ZM7,3v1h6v-1h-6ZM6,3h-2v1h2v-1ZM9,9h-5v1h5v-1ZM10,9v1h3v-1h-3Z"/></svg>

<svg xmlns="http://www.w3.org/2000/svg" viewBox="0 0 16 16"><path d="M0 0h16v16H0z"/><path d="M0 0h16v16H0z"/><path d="M13 7H4V6h9v1zm-2 5H4v1h7v-1zm4-12v16H2V0h13zm-1 1H3v14h11V1zM7 3v1h6V3H7zM6 3H4v1h2V3zm3 6H4v1h5V9zm1 0v1h3V9h-3z" stroke-width="0"/></svg>
